support/copperwire.svg

<?xml version="1.0" encoding="UTF-8" standalone="no"?>
<!-- Created with Inkscape (http://www.inkscape.org/) -->

<svg
   width="16"
   height="16"
   viewBox="0 0 16 16"
   version="1.1"
   id="svg1"
   inkscape:version="1.4.2 (ebf0e940, 2025-05-08)"
   xml:space="preserve"
   sodipodi:docname="copperwire.svg"
   xmlns:inkscape="http://www.inkscape.org/namespaces/inkscape"
   xmlns:sodipodi="http://sodipodi.sourceforge.net/DTD/sodipodi-0.dtd"
   xmlns="http://www.w3.org/2000/svg"
   xmlns:svg="http://www.w3.org/2000/svg"><sodipodi:namedview
     id="namedview1"
     pagecolor="#505050"
     bordercolor="#eeeeee"
     borderopacity="1"
     inkscape:showpageshadow="0"
     inkscape:pageopacity="0"
     inkscape:pagecheckerboard="true"
     inkscape:deskcolor="#505050"
     inkscape:document-units="px"
     inkscape:zoom="20.100932"
     inkscape:cx="10.994515"
     inkscape:cy="6.1191193"
     inkscape:window-width="1440"
     inkscape:window-height="761"
     inkscape:window-x="0"
     inkscape:window-y="25"
     inkscape:window-maximized="1"
     inkscape:current-layer="layer1" /><defs
     id="defs1" /><g
     inkscape:label="Layer 1"
     inkscape:groupmode="layer"
     id="layer1"><path
       style="baseline-shift:baseline;display:inline;overflow:visible;opacity:1;fill:#b87333;fill-opacity:1;fill-rule:evenodd;stroke:#000000;stroke-width:0.0999997;stroke-dasharray:none;stroke-opacity:1;enable-background:accumulate;stop-color:#000000;stop-opacity:1"
       d="M 7.1149779,0.07603513 C 6.1530655,0.15776817 5.1952595,0.4334685 4.2988223,0.92548938 1.0356036,2.7165483 -0.33953178,6.9243411 1.477079,10.23484 3.1304042,13.247774 7.0136396,14.517919 10.069706,12.840205 12.851305,11.313169 14.02393,7.7273128 12.474614,4.9045127 11.064311,2.3349898 7.7519871,1.2520386 5.1447865,2.6836366 2.7712621,3.9869242 1.7713431,7.0462316 3.0941334,9.4558 4.2985133,11.649675 7.125332,12.573357 9.3522571,11.350307 11.380119,10.236586 12.234283,7.6234887 11.103414,5.5639577 10.073474,3.6882364 7.6575669,2.8991395 5.7527185,3.9455235 4.0175744,4.8986842 3.2869285,7.1338424 4.2552389,8.8969489 5.1374513,10.503287 7.2060574,11.179669 8.8381972,10.282901 10.32553,9.4656956 10.951775,7.5500163 10.121112,6.0378635 9.3639711,4.6595499 7.5898487,4.0796473 6.1885521,4.8497453 4.9109548,5.5518629 4.3725358,7.1959382 5.0866753,8.4956928 5.7379567,9.6810449 7.2634678,10.180157 8.4694144,9.5172737 9.569551,8.9125523 10.032602,7.4965673 9.417073,6.3765276 8.8553657,5.3544226 7.5410207,4.9247327 6.5003407,5.4968955 5.5503148,6.0192169 5.1502149,7.2415401 5.6823145,8.2095608 6.168251,9.0935994 7.304777,9.4650196 8.2056795,8.9695995 8.613759,8.7451902 8.9017099,8.3696345 9.0348811,7.9480184 8.9049455,8.3888677 8.617279,8.7830346 8.1945045,9.0154253 7.2754715,9.5205974 6.0902159,9.1339801 5.5884428,8.2207383 5.031972,7.2079448 5.4579434,5.9030701 6.4634625,5.3504763 7.5778434,4.7380562 9.0116944,5.20664 9.619345,6.3128186 10.292371,7.5380084 9.777398,9.1133518 8.5621691,9.7810517 7.2169463,10.520176 5.4897461,9.9550533 4.7570063,8.6208761 3.9462989,7.1447342 4.5646143,5.2499273 6.0276289,4.4462544 7.6455587,3.5574826 9.721161,4.2364952 10.601647,5.8400301 11.574945,7.6125956 10.833052,9.8853246 9.0773465,10.849577 7.1373419,11.915046 4.6508437,11.102508 3.5959009,9.1808451 2.4306481,7.058244 3.3194702,4.3393205 5.4208144,3.1854853 7.7410936,1.9114341 10.711963,2.8821817 11.972846,5.1794677 13.364657,7.7152987 12.303071,10.960755 9.793679,12.338357 7.0245343,13.858556 3.4816522,12.700557 1.9777289,9.959884 0.31859057,6.9363557 1.5827449,3.0689797 4.5737327,1.4273382 7.8725573,-0.3832634 12.090909,0.99569705 13.881575,4.259598 c 1.974483,3.5989527 0.470394,8.200099 -3.088832,10.153215 -1.040135,0.570772 -2.2096141,0.900562 -3.3950317,0.963461 l 0.03017,0.571146 C 8.6989495,15.879978 9.950571,15.527658 11.067651,14.914663 14.899133,12.812145 16.515263,7.870567 14.383339,3.984643 12.928303,1.3325017 10.000713,-0.16916456 7.1149756,0.07603513 Z"
       id="path1"
       sodipodi:nodetypes="sssssssssssssssssssscsssssssssssssssssccsss" /></g></svg>

<svg xmlns="http://www.w3.org/2000/svg" xml:space="preserve" width="16" height="16" viewBox="0 0 16 16"><path d="M7.115.076a7.1 7.1 0 0 0-2.816.85C1.036 2.715-.34 6.923 1.477 10.234c1.653 3.013 5.537 4.283 8.593 2.605 2.781-1.527 3.954-5.113 2.405-7.935-1.41-2.57-4.723-3.653-7.33-2.221C2.77 3.987 1.77 7.046 3.095 9.456c1.204 2.194 4.03 3.117 6.257 1.894 2.028-1.113 2.882-3.727 1.751-5.786-1.03-1.876-3.445-2.665-5.35-1.618-1.735.953-2.466 3.188-1.498 4.95.882 1.607 2.951 2.284 4.583 1.387 1.488-.817 2.114-2.733 1.283-4.245C9.364 4.66 7.59 4.08 6.19 4.85c-1.278.702-1.816 2.346-1.102 3.646.651 1.185 2.176 1.684 3.382 1.021 1.1-.604 1.564-2.02.948-3.14-.562-1.023-1.876-1.452-2.917-.88-.95.522-1.35 1.745-.818 2.713.486.884 1.623 1.255 2.524.76.408-.225.696-.6.829-1.022a1.78 1.78 0 0 1-.84 1.067c-.92.506-2.105.119-2.607-.794-.556-1.013-.13-2.318.875-2.87 1.115-.613 2.549-.144 3.156.962.673 1.225.158 2.8-1.057 3.468-1.345.74-3.072.174-3.805-1.16-.81-1.476-.192-3.371 1.27-4.175 1.619-.889 3.694-.21 4.575 1.394.973 1.773.231 4.045-1.525 5.01-1.94 1.065-4.426.253-5.481-1.67C2.43 7.059 3.319 4.34 5.42 3.186c2.32-1.274 5.291-.303 6.552 1.994 1.392 2.536.33 5.782-2.18 7.16-2.768 1.52-6.311.362-7.815-2.38-1.66-3.023-.395-6.89 2.596-8.532C7.873-.383 12.09.996 13.882 4.26c1.974 3.599.47 8.2-3.09 10.153-1.04.57-2.209.9-3.394.963l.03.571a8.5 8.5 0 0 0 3.64-1.032c3.831-2.103 5.447-7.044 3.315-10.93C12.928 1.333 10.001-.17 7.115.076Z" style="baseline-shift:baseline;display:inline;overflow:visible;opacity:1;fill:#b87333;fill-opacity:1;fill-rule:evenodd;stroke:#000;stroke-width:.0999997;stroke-dasharray:none;stroke-opacity:1;stop-color:#000;stop-opacity:1"/></svg>
